renderer-processes/assets/icons/project.svg

<svg id="Layer_1" enable-background="new 0 0 512 512" height="512" viewBox="0 0 512 512" width="512" xmlns="http://www.w3.org/2000/svg"><g><path d="m504.5 49.692h-233.736v-42.192c0-4.142-3.357-7.5-7.5-7.5h-46.793c-4.142 0-7.5 3.358-7.5 7.5v42.192h-91.782c-4.142 0-7.5 3.358-7.5 7.5v64.482c-4.95 2.638-9.641 6.106-13.591 10.098v-22.043c0-13.597-13.527-24.762-33.647-28.469v-16.281c0-4.142-3.358-7.5-7.5-7.5-13.278 0-26.778 5.105-37.039 14.006-11.55 10.02-17.912 23.928-17.912 39.161v31.423c0 9.697 15 9.697 15 0v-31.423c0-16.417 12.217-33.998 32.451-37.529v287.704c-11.77 1.471-23.79 6.179-32.421 14.474-.016-10.213-.03-193.372-.03-193.372 0-9.697-15-9.697-15 0v232.965c0 .421.043.831.11 1.233.737 21.999 21.09 38.439 47.939 38.439 12.999 0 24.629-3.7 33.196-9.797l.004 27.573c.004 25.344 25.351 39.664 48.056 39.664 24.1-.004 48.042-13.577 48.042-39.68l-.017-106.038h213.59l-155.632 132.508c-5.203 4.429-1.971 13.21 4.862 13.21h225.868c4.143 0 7.5-3.358 7.5-7.5v-36.382c0-9.697-15-9.697-15 0v28.882h-197.989l197.989-168.569v98.311c0 9.697 15 9.697 15 0v-60.458h30.982c4.143 0 7.5-3.358 7.5-7.5v-104.684-196.908c0-4.142-3.357-7.5-7.5-7.5zm-7.5 15v181.908h-175.652v-181.908zm-241.236-49.692v191.945h-31.793v-19.167h5.446c9.697 0 9.697-15 0-15h-5.446v-19.653h12.446c9.697 0 9.697-15 0-15h-12.446v-19.653h5.446c4.142 0 7.5-3.358 7.5-7.5s-3.358-7.5-7.5-7.5h-5.446v-19.653h12.446c9.697 0 9.697-15 0-15h-12.446v-19.652h5.446c9.697 0 9.697-15 0-15h-5.446v-19.167zm-137.304 118.78c3.238-1.532 6.634-2.606 10.187-3.223l.046 287.704c-8.355 1.046-21.861 4.328-32.419 14.479-.017-10.073-.033-17.87-.033-18.082l-.04-246.567c-.002-13.439 8.188-27.655 22.259-34.311zm43.884 316.655c-.253-.145-.508-.288-.767-.43-8.602-4.722-19.833-7.356-31.686-7.44l-.001-9.324c3.594-.495 6.008-.458 6.066-.458 4.696-.314 7.275-2.813 7.737-7.497l-.043-271.201c9.942 2.46 18.648 7.5 18.649 13.079zm-81.246-340.706v247.486 35.684c-8.357-4.799-19.65-7.687-32.451-7.773v-9.326c3.596-.495 6.01-.457 6.066-.456 4.696-.314 7.275-2.813 7.738-7.496v-271.249c11.424 2.735 18.647 8.407 18.647 13.13zm0 308.711c0 11.448-15.135 21.12-33.049 21.12-18.798 0-32.974-10.606-32.974-24.672 0-14.244 5.163-27.735 18.572-34.548v12.61c.534 4.906 3.269 7.395 8.204 7.467 10.422-.981 21.943.185 31.261 5.301 5.377 2.953 8.424 6.703 7.986 12.722zm48.205 78.56c-.003 0-.004 0-.008 0-18.793 0-32.969-10.604-32.971-24.666-.002-14.243 5.158-27.737 18.567-34.552l.002 12.611c.535 4.905 3.27 7.394 8.204 7.465 12.723-1.196 39.861.846 39.251 18.016.002 11.449-15.131 21.124-33.045 21.126zm47.996-329.84c-.002-13.502-13.574-24.733-33.652-28.456l-.003-16.288c-.43-4.571-2.93-7.071-7.501-7.499-3.828.001-7.672.439-11.454 1.257v-51.482h84.282v149.752c0 4.142 3.358 7.5 7.5 7.5h46.793c4.143 0 7.5-3.358 7.5-7.5v-149.752h35.584v189.408 97.183h-129.019zm291.864 138.226c-2.656-1.227-5.781-.799-8.008 1.098l-52.617 44.799h-87.19v-89.683h175.652v89.683h-23.482v-39.088c0-2.924-1.7-5.582-4.355-6.809z"/><path d="m357.34 214.917h69.105c1.974 0 3.918-.808 5.311-2.205l34.552-34.525c1.408-1.407 2.199-3.316 2.199-5.306l-.01-69.007c0-4.058-3.443-7.499-7.501-7.499l-69.114.008c-1.987 0-3.895.79-5.3 2.195l-34.538 34.511c-1.394 1.39-2.205 3.344-2.205 5.311v69.017c.001 4.143 3.359 7.5 7.501 7.5zm7.5-69.017h54.105v54.017h-54.105zm69.106 43.421v-47.812l19.556-19.54.007 47.806zm-38.956-77.938 47.89-.006-19.539 19.523h-47.885z"/><path d="m392.813 314.087h-24.851c-9.697 0-9.697 15 0 15h24.851c9.697 0 9.697-15 0-15z"/><path d="m431.639 284.242h-63.677c-9.697 0-9.697 15 0 15h63.677c9.697 0 9.697-15 0-15z"/><path d="m424.727 385.308-90.555 77.1c-5.201 4.429-1.97 13.21 4.862 13.21h90.555c4.143 0 7.5-3.358 7.5-7.5v-77.1c0-5.702-7.202-10.105-12.362-5.71zm-2.638 75.31h-62.677l62.677-53.364z"/></g></svg>

<?xml version="1.0" encoding="UTF-8" standalone="no"?>
<svg
   xmlns:dc="http://purl.org/dc/elements/1.1/"
   xmlns:cc="http://creativecommons.org/ns#"
   xmlns:rdf="http://www.w3.org/1999/02/22-rdf-syntax-ns#"
   xmlns:svg="http://www.w3.org/2000/svg"
   xmlns="http://www.w3.org/2000/svg"
   xmlns:sodipodi="http://sodipodi.sourceforge.net/DTD/sodipodi-0.dtd"
   xmlns:inkscape="http://www.inkscape.org/namespaces/inkscape"
   id="Layer_1"
   enable-background="new 0 0 512 512"
   height="512"
   viewBox="0 0 512 512"
   width="512"
   version="1.1"
   sodipodi:docname="project.svg"
   inkscape:version="1.0.1 (3bc2e813f5, 2020-09-07)">
  <metadata
     id="metadata46">
    <rdf:RDF>
      <cc:Work
         rdf:about="">
        <dc:format>image/svg+xml</dc:format>
        <dc:type
           rdf:resource="http://purl.org/dc/dcmitype/StillImage" />
        <dc:title></dc:title>
      </cc:Work>
    </rdf:RDF>
  </metadata>
  <defs
     id="defs44" />
  <sodipodi:namedview
     pagecolor="#ffffff"
     bordercolor="#666666"
     borderopacity="1"
     objecttolerance="10"
     gridtolerance="10"
     guidetolerance="10"
     inkscape:pageopacity="0"
     inkscape:pageshadow="2"
     inkscape:window-width="958"
     inkscape:window-height="1008"
     id="namedview42"
     showgrid="false"
     inkscape:document-rotation="0"
     inkscape:zoom="1.1739077"
     inkscape:cx="258.93659"
     inkscape:cy="261.14247"
     inkscape:window-x="-7"
     inkscape:window-y="0"
     inkscape:window-maximized="0"
     inkscape:current-layer="Layer_1" />
  <g
     id="g39">
    <path
       d="M 504.5,49.692 H 270.764 V 7.5 c 0,-4.142 -3.357,-7.5 -7.5,-7.5 h -46.793 c -4.142,0 -7.5,3.358 -7.5,7.5 v 42.192 h -91.782 c -4.142,0 -7.5,3.358 -7.5,7.5 v 64.482 c -4.95,2.638 -9.641,6.106 -13.591,10.098 V 109.729 C 96.098,96.132 82.571,84.967 62.451,81.26 V 64.979 c 0,-4.142 -3.358,-7.5 -7.5,-7.5 -13.278,0 -26.778,5.105 -37.039,14.006 C 6.362,81.505 0,95.413 0,110.646 v 31.423 c 0,9.697 15,9.697 15,0 V 110.646 C 15,94.229 27.217,76.648 47.451,73.117 V 360.821 C 35.681,362.292 23.661,367 15.03,375.295 15.014,365.082 15,142.069 15,142.069 c 0,-9.697 -15,-9.697 -15,0 v 272.819 c 0,0.421 0.043,0.831 0.11,1.233 0.737,21.999 21.09,38.439 47.939,38.439 12.999,0 24.629,-3.7 33.196,-9.797 l 0.004,27.573 C 81.253,497.68 106.6,512 129.305,512 c 24.1,-0.004 48.042,-13.577 48.042,-39.68 L 177.33,366.282 H 390.92 L 235.288,498.79 c -5.203,4.429 -1.971,13.21 4.862,13.21 h 225.868 c 4.143,0 7.5,-3.358 7.5,-7.5 v -77.80348 c 0,-9.697 -15,-9.697 -15,0 V 497 H 260.529 L 458.518,328.431 v 98.311 c 0,9.697 15,9.697 15,0 V 366.284 H 504.5 c 4.143,0 7.5,-3.358 7.5,-7.5 V 254.1 57.192 c 0,-4.142 -3.357,-7.5 -7.5,-7.5 z m -7.5,15 V 246.6 H 321.348 V 64.692 Z M 255.764,15 v 191.945 h -31.793 v -19.167 h 5.446 c 9.697,0 9.697,-15 0,-15 h -5.446 v -19.653 h 12.446 c 9.697,0 9.697,-15 0,-15 h -12.446 v -19.653 h 5.446 c 4.142,0 7.5,-3.358 7.5,-7.5 0,-4.142 -3.358,-7.5 -7.5,-7.5 h -5.446 V 83.819 h 12.446 c 9.697,0 9.697,-15 0,-15 H 223.971 V 49.167 h 5.446 c 9.697,0 9.697,-15 0,-15 h -5.446 V 15 Z M 118.46,133.78 c 3.238,-1.532 6.634,-2.606 10.187,-3.223 l 0.046,287.704 c -8.355,1.046 -21.861,4.328 -32.419,14.479 -0.017,-10.073 -0.033,-17.87 -0.033,-18.082 l -0.04,-246.567 c -0.002,-13.439 8.188,-27.655 22.259,-34.311 z m 43.884,316.655 c -0.253,-0.145 -0.508,-0.288 -0.767,-0.43 -8.602,-4.722 -19.833,-7.356 -31.686,-7.44 l -0.001,-9.324 c 3.594,-0.495 6.008,-0.458 6.066,-0.458 4.696,-0.314 7.275,-2.813 7.737,-7.497 L 143.65,154.085 c 9.942,2.46 18.648,7.5 18.649,13.079 z M 81.098,109.729 v 247.486 35.684 C 72.741,388.1 61.448,385.212 48.647,385.126 V 375.8 c 3.596,-0.495 6.01,-0.457 6.066,-0.456 4.696,-0.314 7.275,-2.813 7.738,-7.496 V 96.599 c 11.424,2.735 18.647,8.407 18.647,13.13 z m 0,308.711 c 0,11.448 -15.135,21.12 -33.049,21.12 -18.798,0 -32.974,-10.606 -32.974,-24.672 0,-14.244 5.163,-27.735 18.572,-34.548 v 12.61 c 0.534,4.906 3.269,7.395 8.204,7.467 10.422,-0.981 21.943,0.185 31.261,5.301 5.377,2.953 8.424,6.703 7.986,12.722 z M 129.303,497 h -0.008 c -18.793,0 -32.969,-10.604 -32.971,-24.666 -0.002,-14.243 5.158,-27.737 18.567,-34.552 l 0.002,12.611 c 0.535,4.905 3.27,7.394 8.204,7.465 12.723,-1.196 39.861,0.846 39.251,18.016 0.002,11.449 -15.131,21.124 -33.045,21.126 z m 47.996,-329.84 c -0.002,-13.502 -13.574,-24.733 -33.652,-28.456 l -0.003,-16.288 c -0.43,-4.571 -2.93,-7.071 -7.501,-7.499 -3.828,0.001 -7.672,0.439 -11.454,1.257 V 64.692 h 84.282 v 149.752 c 0,4.142 3.358,7.5 7.5,7.5 h 46.793 c 4.143,0 7.5,-3.358 7.5,-7.5 V 64.692 h 35.584 V 254.1 351.283 H 177.329 Z m 291.864,138.226 c -2.656,-1.227 -5.781,-0.799 -8.008,1.098 l -52.617,44.799 h -87.19 V 261.6 H 497 v 89.683 h -23.482 v -39.088 c 0,-2.924 -1.7,-5.582 -4.355,-6.809 z"
       id="path29"
       sodipodi:nodetypes="scsssscssccscsscssssccccsscscccccccssssscccsscsscsscccccccccssccssccsssccssccsscccccccccccccccccccscccccccscsscccccsssccccscccccccssssccccccccccccccsc" />
    <path
       d="m357.34 214.917h69.105c1.974 0 3.918-.808 5.311-2.205l34.552-34.525c1.408-1.407 2.199-3.316 2.199-5.306l-.01-69.007c0-4.058-3.443-7.499-7.501-7.499l-69.114.008c-1.987 0-3.895.79-5.3 2.195l-34.538 34.511c-1.394 1.39-2.205 3.344-2.205 5.311v69.017c.001 4.143 3.359 7.5 7.501 7.5zm7.5-69.017h54.105v54.017h-54.105zm69.106 43.421v-47.812l19.556-19.54.007 47.806zm-38.956-77.938 47.89-.006-19.539 19.523h-47.885z"
       id="path31" />
    <path
       d="m392.813 314.087h-24.851c-9.697 0-9.697 15 0 15h24.851c9.697 0 9.697-15 0-15z"
       id="path33" />
    <path
       d="m431.639 284.242h-63.677c-9.697 0-9.697 15 0 15h63.677c9.697 0 9.697-15 0-15z"
       id="path35" />
    <path
       d="m424.727 385.308-90.555 77.1c-5.201 4.429-1.97 13.21 4.862 13.21h90.555c4.143 0 7.5-3.358 7.5-7.5v-77.1c0-5.702-7.202-10.105-12.362-5.71zm-2.638 75.31h-62.677l62.677-53.364z"
       id="path37" />
  </g>
</svg>
